lib/assets/svg/button/zhTW_add_to_google_wallet_wallet-button.svg

<svg fill="none" height="50" viewBox="0 0 263 50" width="263" xmlns="http://www.w3.org/2000/svg" xmlns:xlink="http://www.w3.org/1999/xlink"><linearGradient id="a" gradientUnits="userSpaceOnUse" x1="34.5703" x2="18.7309" y1="30.7864" y2="48.9133"><stop offset="0" stop-color="#4285f4"/><stop offset="1" stop-color="#1b74e8"/></linearGradient><rect fill="#1f1f1f" height="49" rx="24.5" width="262" x=".5" y=".5"/><path d="m51 22h-30v-5c0-2.7143 2.2018-5 4.8165-5h20.367c2.6147 0 4.8165 2.2857 4.8165 5z" fill="#34a853"/><path d="m51 26.0537h-30v-5c0-2.7143 2.2018-5 4.8165-5h20.367c2.6147 0 4.8165 2.2857 4.8165 5z" fill="#fbbc04"/><path d="m51 30.2468h-30v-5c0-2.7143 2.2018-5 4.8165-5h20.367c2.6147 0 4.8165 2.2857 4.8165 5z" fill="#ea4335"/><path d="m21 23.2752 19.0411 4.4037c2.1918.5505 4.6575 0 6.4384-1.3761l4.5205-3.3028v10.3211c0 2.6147-2.1918 4.6789-4.7945 4.6789h-20.411c-2.6027 0-4.7945-2.0642-4.7945-4.6789z" fill="url(#a)"/><path d="m74.74 21.96v1.4h7.44v-1.4zm-10.52-4.66v1.28h8.82v-1.28zm-.22 7.94v1.3h9.14v-1.3zm-.06-3.36v1.28h9.34v-1.28zm14.52.64v10.98h1.46v-10.98zm-10.54-7.24v2.68h1.46v-2.68zm0 7.64v10.66h1.46v-10.66zm6.1-6.08v7c0 2.84-.28 6.3-2.84 8.82.36.2.9.7 1.08 1.04 2.82-2.78 3.18-6.84 3.18-9.84v-6.18c.28-.04.4-.12.42-.28zm6.7-1.4c-1.46.72-4.1 1.42-6.34 1.9.18.3.38.82.46 1.14 2.4-.42 5.2-1.1 7.08-1.94zm-11.48 11.48-.82.68c.74.62 2.62 2.38 3.26 3.12l.88-1.12c-.5-.46-2.68-2.24-3.32-2.68zm-3.82-7.98c.4.92.72 2.12.78 2.9l1.26-.34c-.1-.76-.44-1.94-.86-2.82zm5.12-.3c-.22.84-.64 2.08-1 2.88l1.2.28c.36-.74.78-1.86 1.16-2.86zm-2.6 7.26c-.96 1.96-2.78 4.12-4.4 5.18.34.24.78.72 1.02 1.06 1.6-1.24 3.44-3.6 4.46-5.82zm15.92-5.8v1.42h5.36v-1.42zm2.14-4.6v13.08h1.46v-13.08zm-2.44 13.42.52 1.5c1.7-.72 3.86-1.68 5.9-2.6l-.36-1.36c-2.22.94-4.54 1.9-6.06 2.46zm7.78-2.6v7.3h1.44v-6.16h5.94v6.1h1.48v-7.24zm.76 5.36v1.18h7.56v-1.18zm-.04-2.66v1.08h7.5v-1.08zm3.04-8.96v4.52h1.14v-4.52zm-3.5.6h8.24v3.38h-8.24zm-1.22-1.16v5.68h10.76v-5.68zm1.96 1.86c.36.74.72 1.72.84 2.32l.96-.32c-.12-.58-.48-1.54-.86-2.26zm5.56-.28c-.18.66-.58 1.64-.9 2.3l.82.3c.36-.58.76-1.44 1.14-2.26zm-3.84-5.34v1.3h4.06v-1.3zm-1.7.54c-.78 1.56-2.14 3.06-3.52 4.08.32.24.82.78 1.02 1.04 1.42-1.14 2.92-2.92 3.84-4.72zm4.54-.54v.76h.4c1.02 1.78 2.72 3.58 4.28 4.7.24-.38.68-.9 1-1.16-1.5-.92-3.22-2.62-4.18-4.3zm7.62.72v1.4h17.12v-1.4zm1.32 9.76v1.4h14.44v-1.4zm-1.76 5.16v1.4h17.88v-1.4zm8.06-7.64v8.62h1.56v-8.62zm-7.26-1.88.06 1.52c3.54-.12 9.1-.36 14.32-.6l.08-1.36c-5.38.2-11 .38-14.46.44zm5.46-4.76c-.6 1.58-1.74 3.78-2.64 5.16l1.38.5c.92-1.3 2.08-3.36 2.98-5.12zm4.48 2.18c2.02 1.48 4.42 3.6 5.54 5.02l1.34-.96c-1.18-1.44-3.68-3.5-5.66-4.88z" fill="#fff"/><path d="m136.4 32.32c-1.027 0-1.993-.1867-2.9-.56-.893-.3733-1.687-.8933-2.38-1.56-.693-.68-1.24-1.4733-1.64-2.38-.387-.92-.58-1.9133-.58-2.98s.193-2.0533.58-2.96c.4-.92.94-1.7133 1.62-2.38.693-.68 1.493-1.2067 2.4-1.58s1.873-.56 2.9-.56c1.093 0 2.1.1933 3.02.58.933.3867 1.713.9267 2.34 1.62l-1.52 1.5c-.467-.52-1.027-.92-1.68-1.2-.64-.28-1.36-.42-2.16-.42-.947 0-1.82.2267-2.62.68-.8.44-1.447 1.0667-1.94 1.88-.48.8-.72 1.7467-.72 2.84s.247 2.0467.74 2.86c.493.8 1.14 1.4267 1.94 1.88.8.44 1.673.66 2.62.66.867 0 1.653-.16 2.36-.48.707-.3333 1.273-.8 1.7-1.4.44-.6.707-1.32.8-2.16h-4.9v-1.94h6.96c.08.36.12.74.12 1.14v.02c0 1.3867-.307 2.6-.92 3.64-.6 1.0267-1.433 1.8267-2.5 2.4s-2.28.86-3.64.86zm13.5 0c-1.053 0-1.98-.24-2.78-.72s-1.427-1.1267-1.88-1.94-.68-1.7333-.68-2.76c0-1.0133.227-1.9267.68-2.74.453-.8267 1.08-1.48 1.88-1.96s1.727-.72 2.78-.72c1.04 0 1.96.24 2.76.72s1.427 1.1333 1.88 1.96c.453.8133.68 1.7267.68 2.74 0 1.0267-.227 1.9467-.68 2.76s-1.08 1.46-1.88 1.94-1.72.72-2.76.72zm0-1.98c.56 0 1.08-.1333 1.56-.4.48-.28.867-.6733 1.16-1.18.307-.52.46-1.14.46-1.86s-.153-1.3333-.46-1.84c-.293-.52-.68-.9133-1.16-1.18-.48-.28-1-.42-1.56-.42s-1.087.14-1.58.42c-.48.2667-.873.66-1.18 1.18-.293.5067-.44 1.12-.44 1.84s.147 1.34.44 1.86c.307.5067.7.9 1.18 1.18.493.2667 1.02.4 1.58.4zm12.109 1.98c-1.053 0-1.98-.24-2.78-.72s-1.426-1.1267-1.88-1.94c-.453-.8133-.68-1.7333-.68-2.76 0-1.0133.227-1.9267.68-2.74.454-.8267 1.08-1.48 1.88-1.96s1.727-.72 2.78-.72c1.04 0 1.96.24 2.76.72s1.427 1.1333 1.88 1.96c.454.8133.68 1.7267.68 2.74 0 1.0267-.226 1.9467-.68 2.76-.453.8133-1.08 1.46-1.88 1.94s-1.72.72-2.76.72zm0-1.98c.56 0 1.08-.1333 1.56-.4.48-.28.867-.6733 1.16-1.18.307-.52.46-1.14.46-1.86s-.153-1.3333-.46-1.84c-.293-.52-.68-.9133-1.16-1.18-.48-.28-1-.42-1.56-.42s-1.086.14-1.58.42c-.48.2667-.873.66-1.18 1.18-.293.5067-.44 1.12-.44 1.84s.147 1.34.44 1.86c.307.5067.7.9 1.18 1.18.494.2667 1.02.4 1.58.4zm11.91 6.3c-.894 0-1.667-.1467-2.32-.44-.64-.28-1.16-.6467-1.56-1.1-.4-.44-.687-.8933-.86-1.36l2-.84c.213.5333.553.9667 1.02 1.3.48.3467 1.053.52 1.72.52.933 0 1.666-.28 2.2-.84.546-.56.82-1.3533.82-2.38v-.98h-.12c-.32.48-.767.8667-1.34 1.16-.56.28-1.2.42-1.92.42-.867 0-1.66-.22-2.38-.66s-1.3-1.0533-1.74-1.84c-.44-.8-.66-1.7333-.66-2.8 0-1.08.22-2.0133.66-2.8.44-.8 1.02-1.42 1.74-1.86s1.513-.66 2.38-.66c.72 0 1.36.1467 1.92.44.573.2933 1.02.68 1.34 1.16h.12v-1.28h2.06v9.66c0 1.1067-.22 2.0467-.66 2.82-.427.7733-1.02 1.36-1.78 1.76s-1.64.6-2.64.6zm.02-6.5c.533 0 1.026-.1267 1.48-.38.453-.2667.82-.6467 1.1-1.14.28-.5067.42-1.1133.42-1.82 0-.7333-.14-1.3467-.42-1.84-.28-.5067-.647-.8867-1.1-1.14-.454-.2533-.947-.38-1.48-.38-.534 0-1.034.1333-1.5.4-.454.2533-.82.6267-1.1 1.12s-.42 1.1067-.42 1.84c0 .72.14 1.3333.42 1.84.28.4933.646.8667 1.1 1.12.466.2533.966.38 1.5.38zm7.607 1.86v-14.32h2.16v14.32zm9.269.32c-1 0-1.894-.2333-2.68-.7-.787-.4667-1.407-1.1067-1.86-1.92-.44-.8133-.66-1.74-.66-2.78 0-.9733.213-1.8733.64-2.7.426-.8267 1.02-1.4867 1.78-1.98.773-.5067 1.66-.76 2.66-.76 1.053 0 1.946.2267 2.68.68.746.4533 1.313 1.0733 1.7 1.86.386.7867.58 1.6733.58 2.66 0 .1467-.007.28-.02.4 0 .12-.007.2133-.02.28h-7.88c.106 1.0133.46 1.7733 1.06 2.28.613.5067 1.306.76 2.08.76.693 0 1.266-.1533 1.72-.46.453-.32.813-.7133 1.08-1.18l1.78.86c-.44.8-1.04 1.4533-1.8 1.96-.76.4933-1.707.74-2.84.74zm-.1-9c-.72 0-1.334.22-1.84.66-.507.44-.847 1.0267-1.02 1.76h5.66c-.027-.3467-.14-.7067-.34-1.08s-.507-.6867-.92-.94c-.4-.2667-.914-.4-1.54-.4zm19.231-5.26.14 1.22 9.82-.96-.12-1.22zm-.24 8.9.1 1.24 10.38-1-.14-1.22zm2.34-11.76c.4 5.02 3.54 9 6.32 9 1.12 0 1.62-.52 1.86-2.42-.36-.12-.78-.34-1.08-.6-.08 1.26-.22 1.7-.7 1.7-1.92.02-4.7-3.36-5.04-7.68zm.08 8.88c.34 5.34 3.16 9.52 6.26 9.52 1.2 0 1.7-.54 1.94-2.56-.36-.12-.8-.36-1.1-.64-.1 1.38-.24 1.86-.76 1.86-2.16.04-4.68-3.52-4.96-8.18zm5.22-5.16c-1.56 1.88-4.74 3.2-7.8 3.92.28.26.72.84.9 1.12 3.06-.9 6.4-2.38 8.16-4.56zm.3 8.86c-1.68 2.24-5.2 3.7-8.72 4.48.28.28.72.92.88 1.22 3.54-.98 7.24-2.64 9.18-5.22zm-2.46-11.74c.9.34 2.04.88 2.6 1.34l.7-.9c-.58-.42-1.72-.94-2.6-1.22zm-.3 8.56c.92.38 2.04 1.02 2.6 1.5l.84-.86c-.58-.48-1.72-1.06-2.64-1.42zm-11.66-4.44v1.3h5.62v-1.3zm-1.08 3.42v1.32h7.32v-1.32zm.46 2.64c.38 1.22.7 2.78.72 3.82l1.12-.28c-.08-1.04-.4-2.58-.8-3.8zm-.64 5.38.3 1.4c2.08-.44 4.84-1.04 7.48-1.62l-.1-1.26c-2.82.58-5.74 1.16-7.68 1.48zm6.2-5.82c-.18 1.06-.54 2.64-.84 3.62l.98.28c.34-.94.68-2.38 1.02-3.6zm-2.88-5.14v11.12l1.32-.22v-10.9zm-.06-5.42c-.68 1.6-1.96 3.64-3.78 5.16.28.2.72.64.94.94 1.98-1.74 3.28-3.86 4.06-5.4v-.38h-.44v-.32zm.24 0v1.06h.28c1.16 1 2.52 2.66 3.2 3.68l1-1.14c-.7-1-2.18-2.54-3.36-3.6zm21.24-.12c-1.12 2.86-2.96 5.64-5.04 7.38.4.24 1.04.78 1.34 1.06 2.04-1.92 4-4.88 5.26-8zm-.24 2.4-.72 1.42h12v-1.42zm10.8 0v.3c-.18 6.54-.38 8.84-.84 9.36-.16.22-.38.28-.7.28-.38 0-1.34-.02-2.36-.12.24.4.4 1 .42 1.44 1.08.04 2.08.06 2.64 0 .6-.06 1-.22 1.36-.68.58-.74.78-3.12.98-9.86 0-.22 0-.72 0-.72zm-11.86 8.32v1.34h7.72v-6.1h-8.14v1.34h6.64v3.42zm-.72 0v5.14c0 1.98.94 2.42 4.14 2.42h7.48c2.84 0 3.42-.7 3.72-3.58-.42-.08-1.06-.32-1.44-.54-.18 2.3-.48 2.7-2.3 2.7-1.34 0-6.52 0-7.54 0-2.16 0-2.56-.18-2.56-1v-5.14z" fill="#fff"/><rect height="49" rx="24.5" stroke="#747775" width="262" x=".5" y=".5"/></svg>

<svg width="263" height="50" viewBox="0 0 263 50" fill="none" xmlns="http://www.w3.org/2000/svg">
<rect x="0.5" y="0.5" width="262" height="49" rx="24.5" fill="#1F1F1F"/>
<path d="M51 22H21V17C21 14.2857 23.2018 12 25.8165 12H46.1835C48.7982 12 51 14.2857 51 17V22Z" fill="#34A853"/>
<path d="M51 26.0537H21V21.0537C21 18.3394 23.2018 16.0537 25.8165 16.0537H46.1835C48.7982 16.0537 51 18.3394 51 21.0537V26.0537Z" fill="#FBBC04"/>
<path d="M51 30.2468H21V25.2468C21 22.5325 23.2018 20.2468 25.8165 20.2468H46.1835C48.7982 20.2468 51 22.5325 51 25.2468V30.2468Z" fill="#EA4335"/>
<path d="M21 23.2752L40.0411 27.6789C42.2329 28.2294 44.6986 27.6789 46.4795 26.3028L51 23V33.3211C51 35.9358 48.8082 38 46.2055 38H25.7945C23.1918 38 21 35.9358 21 33.3211V23.2752Z" fill="url(#paint0_linear_1819_24025)"/>
<path d="M74.74 21.96V23.36H82.18V21.96H74.74ZM64.22 17.3V18.58H73.04V17.3H64.22ZM64 25.24V26.54H73.14V25.24H64ZM63.94 21.88V23.16H73.28V21.88H63.94ZM78.46 22.52V33.5H79.92V22.52H78.46ZM67.92 15.28V17.96H69.38V15.28H67.92ZM67.92 22.92V33.58H69.38V22.92H67.92ZM74.02 16.84V23.84C74.02 26.68 73.74 30.14 71.18 32.66C71.54 32.86 72.08 33.36 72.26 33.7C75.08 30.92 75.44 26.86 75.44 23.86V17.68C75.72 17.64 75.84 17.56 75.86 17.4L74.02 16.84ZM80.72 15.44C79.26 16.16 76.62 16.86 74.38 17.34C74.56 17.64 74.76 18.16 74.84 18.48C77.24 18.06 80.04 17.38 81.92 16.54L80.72 15.44ZM69.24 26.92L68.42 27.6C69.16 28.22 71.04 29.98 71.68 30.72L72.56 29.6C72.06 29.14 69.88 27.36 69.24 26.92ZM65.42 18.94C65.82 19.86 66.14 21.06 66.2 21.84L67.46 21.5C67.36 20.74 67.02 19.56 66.6 18.68L65.42 18.94ZM70.54 18.64C70.32 19.48 69.9 20.72 69.54 21.52L70.74 21.8C71.1 21.06 71.52 19.94 71.9 18.94L70.54 18.64ZM67.94 25.9C66.98 27.86 65.16 30.02 63.54 31.08C63.88 31.32 64.32 31.8 64.56 32.14C66.16 30.9 68 28.54 69.02 26.32L67.94 25.9ZM83.86 20.1V21.52H89.22V20.1H83.86ZM86 15.5V28.58H87.46V15.5H86ZM83.56 28.92L84.08 30.42C85.78 29.7 87.94 28.74 89.98 27.82L89.62 26.46C87.4 27.4 85.08 28.36 83.56 28.92ZM91.34 26.32V33.62H92.78V27.46H98.72V33.56H100.2V26.32H91.34ZM92.1 31.68V32.86H99.66V31.68H92.1ZM92.06 29.02V30.1H99.56V29.02H92.06ZM95.1 20.06V24.58H96.24V20.06H95.1ZM91.6 20.66H99.84V24.04H91.6V20.66ZM90.38 19.5V25.18H101.14V19.5H90.38ZM92.34 21.36C92.7 22.1 93.06 23.08 93.18 23.68L94.14 23.36C94.02 22.78 93.66 21.82 93.28 21.1L92.34 21.36ZM97.9 21.08C97.72 21.74 97.32 22.72 97 23.38L97.82 23.68C98.18 23.1 98.58 22.24 98.96 21.42L97.9 21.08ZM94.06 15.74V17.04H98.12V15.74H94.06ZM92.36 16.28C91.58 17.84 90.22 19.34 88.84 20.36C89.16 20.6 89.66 21.14 89.86 21.4C91.28 20.26 92.78 18.48 93.7 16.68L92.36 16.28ZM96.9 15.74V16.5H97.3C98.32 18.28 100.02 20.08 101.58 21.2C101.82 20.82 102.26 20.3 102.58 20.04C101.08 19.12 99.36 17.42 98.4 15.74H96.9ZM104.52 16.46V17.86H121.64V16.46H104.52ZM105.84 26.22V27.62H120.28V26.22H105.84ZM104.08 31.38V32.78H121.96V31.38H104.08ZM112.14 23.74V32.36H113.7V23.74H112.14ZM104.88 21.86L104.94 23.38C108.48 23.26 114.04 23.02 119.26 22.78L119.34 21.42C113.96 21.62 108.34 21.8 104.88 21.86ZM110.34 17.1C109.74 18.68 108.6 20.88 107.7 22.26L109.08 22.76C110 21.46 111.16 19.4 112.06 17.64L110.34 17.1ZM114.82 19.28C116.84 20.76 119.24 22.88 120.36 24.3L121.7 23.34C120.52 21.9 118.02 19.84 116.04 18.46L114.82 19.28Z" fill="white"/>
<path d="M136.4 32.32C135.373 32.32 134.407 32.1333 133.5 31.76C132.607 31.3867 131.813 30.8667 131.12 30.2C130.427 29.52 129.88 28.7267 129.48 27.82C129.093 26.9 128.9 25.9067 128.9 24.84C128.9 23.7733 129.093 22.7867 129.48 21.88C129.88 20.96 130.42 20.1667 131.1 19.5C131.793 18.82 132.593 18.2933 133.5 17.92C134.407 17.5467 135.373 17.36 136.4 17.36C137.493 17.36 138.5 17.5533 139.42 17.94C140.353 18.3267 141.133 18.8667 141.76 19.56L140.24 21.06C139.773 20.54 139.213 20.14 138.56 19.86C137.92 19.58 137.2 19.44 136.4 19.44C135.453 19.44 134.58 19.6667 133.78 20.12C132.98 20.56 132.333 21.1867 131.84 22C131.36 22.8 131.12 23.7467 131.12 24.84C131.12 25.9333 131.367 26.8867 131.86 27.7C132.353 28.5 133 29.1267 133.8 29.58C134.6 30.02 135.473 30.24 136.42 30.24C137.287 30.24 138.073 30.08 138.78 29.76C139.487 29.4267 140.053 28.96 140.48 28.36C140.92 27.76 141.187 27.04 141.28 26.2H136.38V24.26H143.34C143.42 24.62 143.46 25 143.46 25.4V25.42C143.46 26.8067 143.153 28.02 142.54 29.06C141.94 30.0867 141.107 30.8867 140.04 31.46C138.973 32.0333 137.76 32.32 136.4 32.32ZM149.9 32.32C148.847 32.32 147.92 32.08 147.12 31.6C146.32 31.12 145.693 30.4733 145.24 29.66C144.787 28.8467 144.56 27.9267 144.56 26.9C144.56 25.8867 144.787 24.9733 145.24 24.16C145.693 23.3333 146.32 22.68 147.12 22.2C147.92 21.72 148.847 21.48 149.9 21.48C150.94 21.48 151.86 21.72 152.66 22.2C153.46 22.68 154.087 23.3333 154.54 24.16C154.993 24.9733 155.22 25.8867 155.22 26.9C155.22 27.9267 154.993 28.8467 154.54 29.66C154.087 30.4733 153.46 31.12 152.66 31.6C151.86 32.08 150.94 32.32 149.9 32.32ZM149.9 30.34C150.46 30.34 150.98 30.2067 151.46 29.94C151.94 29.66 152.327 29.2667 152.62 28.76C152.927 28.24 153.08 27.62 153.08 26.9C153.08 26.18 152.927 25.5667 152.62 25.06C152.327 24.54 151.94 24.1467 151.46 23.88C150.98 23.6 150.46 23.46 149.9 23.46C149.34 23.46 148.813 23.6 148.32 23.88C147.84 24.1467 147.447 24.54 147.14 25.06C146.847 25.5667 146.7 26.18 146.7 26.9C146.7 27.62 146.847 28.24 147.14 28.76C147.447 29.2667 147.84 29.66 148.32 29.94C148.813 30.2067 149.34 30.34 149.9 30.34ZM162.009 32.32C160.956 32.32 160.029 32.08 159.229 31.6C158.429 31.12 157.803 30.4733 157.349 29.66C156.896 28.8467 156.669 27.9267 156.669 26.9C156.669 25.8867 156.896 24.9733 157.349 24.16C157.803 23.3333 158.429 22.68 159.229 22.2C160.029 21.72 160.956 21.48 162.009 21.48C163.049 21.48 163.969 21.72 164.769 22.2C165.569 22.68 166.196 23.3333 166.649 24.16C167.103 24.9733 167.329 25.8867 167.329 26.9C167.329 27.9267 167.103 28.8467 166.649 29.66C166.196 30.4733 165.569 31.12 164.769 31.6C163.969 32.08 163.049 32.32 162.009 32.32ZM162.009 30.34C162.569 30.34 163.089 30.2067 163.569 29.94C164.049 29.66 164.436 29.2667 164.729 28.76C165.036 28.24 165.189 27.62 165.189 26.9C165.189 26.18 165.036 25.5667 164.729 25.06C164.436 24.54 164.049 24.1467 163.569 23.88C163.089 23.6 162.569 23.46 162.009 23.46C161.449 23.46 160.923 23.6 160.429 23.88C159.949 24.1467 159.556 24.54 159.249 25.06C158.956 25.5667 158.809 26.18 158.809 26.9C158.809 27.62 158.956 28.24 159.249 28.76C159.556 29.2667 159.949 29.66 160.429 29.94C160.923 30.2067 161.449 30.34 162.009 30.34ZM173.919 36.64C173.025 36.64 172.252 36.4933 171.599 36.2C170.959 35.92 170.439 35.5533 170.039 35.1C169.639 34.66 169.352 34.2067 169.179 33.74L171.179 32.9C171.392 33.4333 171.732 33.8667 172.199 34.2C172.679 34.5467 173.252 34.72 173.919 34.72C174.852 34.72 175.585 34.44 176.119 33.88C176.665 33.32 176.939 32.5267 176.939 31.5V30.52H176.819C176.499 31 176.052 31.3867 175.479 31.68C174.919 31.96 174.279 32.1 173.559 32.1C172.692 32.1 171.899 31.88 171.179 31.44C170.459 31 169.879 30.3867 169.439 29.6C168.999 28.8 168.779 27.8667 168.779 26.8C168.779 25.72 168.999 24.7867 169.439 24C169.879 23.2 170.459 22.58 171.179 22.14C171.899 21.7 172.692 21.48 173.559 21.48C174.279 21.48 174.919 21.6267 175.479 21.92C176.052 22.2133 176.499 22.6 176.819 23.08H176.939V21.8H178.999V31.46C178.999 32.5667 178.779 33.5067 178.339 34.28C177.912 35.0533 177.319 35.64 176.559 36.04C175.799 36.44 174.919 36.64 173.919 36.64ZM173.939 30.14C174.472 30.14 174.965 30.0133 175.419 29.76C175.872 29.4933 176.239 29.1133 176.519 28.62C176.799 28.1133 176.939 27.5067 176.939 26.8C176.939 26.0667 176.799 25.4533 176.519 24.96C176.239 24.4533 175.872 24.0733 175.419 23.82C174.965 23.5667 174.472 23.44 173.939 23.44C173.405 23.44 172.905 23.5733 172.439 23.84C171.985 24.0933 171.619 24.4667 171.339 24.96C171.059 25.4533 170.919 26.0667 170.919 26.8C170.919 27.52 171.059 28.1333 171.339 28.64C171.619 29.1333 171.985 29.5067 172.439 29.76C172.905 30.0133 173.405 30.14 173.939 30.14ZM181.546 32V17.68H183.706V32H181.546ZM190.815 32.32C189.815 32.32 188.921 32.0867 188.135 31.62C187.348 31.1533 186.728 30.5133 186.275 29.7C185.835 28.8867 185.615 27.96 185.615 26.92C185.615 25.9467 185.828 25.0467 186.255 24.22C186.681 23.3933 187.275 22.7333 188.035 22.24C188.808 21.7333 189.695 21.48 190.695 21.48C191.748 21.48 192.641 21.7067 193.375 22.16C194.121 22.6133 194.688 23.2333 195.075 24.02C195.461 24.8067 195.655 25.6933 195.655 26.68C195.655 26.8267 195.648 26.96 195.635 27.08C195.635 27.2 195.628 27.2933 195.615 27.36H187.735C187.841 28.3733 188.195 29.1333 188.795 29.64C189.408 30.1467 190.101 30.4 190.875 30.4C191.568 30.4 192.141 30.2467 192.595 29.94C193.048 29.62 193.408 29.2267 193.675 28.76L195.455 29.62C195.015 30.42 194.415 31.0733 193.655 31.58C192.895 32.0733 191.948 32.32 190.815 32.32ZM190.715 23.32C189.995 23.32 189.381 23.54 188.875 23.98C188.368 24.42 188.028 25.0067 187.855 25.74H193.515C193.488 25.3933 193.375 25.0333 193.175 24.66C192.975 24.2867 192.668 23.9733 192.255 23.72C191.855 23.4533 191.341 23.32 190.715 23.32ZM209.946 18.06L210.086 19.28L219.906 18.32L219.786 17.1L209.946 18.06ZM209.706 26.96L209.806 28.2L220.186 27.2L220.046 25.98L209.706 26.96ZM212.046 15.2C212.446 20.22 215.586 24.2 218.366 24.2C219.486 24.2 219.986 23.68 220.226 21.78C219.866 21.66 219.446 21.44 219.146 21.18C219.066 22.44 218.926 22.88 218.446 22.88C216.526 22.9 213.746 19.52 213.406 15.2H212.046ZM212.126 24.08C212.466 29.42 215.286 33.6 218.386 33.6C219.586 33.6 220.086 33.06 220.326 31.04C219.966 30.92 219.526 30.68 219.226 30.4C219.126 31.78 218.986 32.26 218.466 32.26C216.306 32.3 213.786 28.74 213.506 24.08H212.126ZM217.346 18.92C215.786 20.8 212.606 22.12 209.546 22.84C209.826 23.1 210.266 23.68 210.446 23.96C213.506 23.06 216.846 21.58 218.606 19.4L217.346 18.92ZM217.646 27.78C215.966 30.02 212.446 31.48 208.926 32.26C209.206 32.54 209.646 33.18 209.806 33.48C213.346 32.5 217.046 30.84 218.986 28.26L217.646 27.78ZM215.186 16.04C216.086 16.38 217.226 16.92 217.786 17.38L218.486 16.48C217.906 16.06 216.766 15.54 215.886 15.26L215.186 16.04ZM214.886 24.6C215.806 24.98 216.926 25.62 217.486 26.1L218.326 25.24C217.746 24.76 216.606 24.18 215.686 23.82L214.886 24.6ZM203.226 20.16V21.46H208.846V20.16H203.226ZM202.146 23.58V24.9H209.466V23.58H202.146ZM202.606 26.22C202.986 27.44 203.306 29 203.326 30.04L204.446 29.76C204.366 28.72 204.046 27.18 203.646 25.96L202.606 26.22ZM201.966 31.6L202.266 33C204.346 32.56 207.106 31.96 209.746 31.38L209.646 30.12C206.826 30.7 203.906 31.28 201.966 31.6ZM208.166 25.78C207.986 26.84 207.626 28.42 207.326 29.4L208.306 29.68C208.646 28.74 208.986 27.3 209.326 26.08L208.166 25.78ZM205.286 20.64V31.76L206.606 31.54V20.64H205.286ZM205.226 15.22C204.546 16.82 203.266 18.86 201.446 20.38C201.726 20.58 202.166 21.02 202.386 21.32C204.366 19.58 205.666 17.46 206.446 15.92V15.54H206.006V15.22H205.226ZM205.466 15.22V16.28H205.746C206.906 17.28 208.266 18.94 208.946 19.96L209.946 18.82C209.246 17.82 207.766 16.28 206.586 15.22H205.466ZM226.706 15.1C225.586 17.96 223.746 20.74 221.666 22.48C222.066 22.72 222.706 23.26 223.006 23.54C225.046 21.62 227.006 18.66 228.266 15.54L226.706 15.1ZM226.466 17.5L225.746 18.92H237.746V17.5H226.466ZM237.266 17.5V17.8C237.086 24.34 236.886 26.64 236.426 27.16C236.266 27.38 236.046 27.44 235.726 27.44C235.346 27.44 234.386 27.42 233.366 27.32C233.606 27.72 233.766 28.32 233.786 28.76C234.866 28.8 235.866 28.82 236.426 28.76C237.026 28.7 237.426 28.54 237.786 28.08C238.366 27.34 238.566 24.96 238.766 18.22C238.766 18 238.766 17.5 238.766 17.5H237.266ZM225.406 25.82V27.16H233.126V21.06H224.986V22.4H231.626V25.82H225.406ZM224.686 25.82V30.96C224.686 32.94 225.626 33.38 228.826 33.38C229.526 33.38 235.566 33.38 236.306 33.38C239.146 33.38 239.726 32.68 240.026 29.8C239.606 29.72 238.966 29.48 238.586 29.26C238.406 31.56 238.106 31.96 236.286 31.96C234.946 31.96 229.766 31.96 228.746 31.96C226.586 31.96 226.186 31.78 226.186 30.96V25.82H224.686Z" fill="white"/>
<rect x="0.5" y="0.5" width="262" height="49" rx="24.5" stroke="#747775"/>
<defs>
<linearGradient id="paint0_linear_1819_24025" x1="34.5703" y1="30.7864" x2="18.7309" y2="48.9133" gradientUnits="userSpaceOnUse">
<stop stop-color="#4285F4"/>
<stop offset="1" stop-color="#1B74E8"/>
</linearGradient>
</defs>
</svg>
